X:1
T:Violin Partita No.1 in B minor
T:J. S. Bach
T:BWV 1002
%%score { ( 1 3 ) | ( 2 4 ) }
L:1/8
Q:1/4=60
M:4/4
K:D
V:1 treble 
V:3 treble 
V:2 treble 
V:4 treble 
V:1
"^Slow""^Allemanda" f/ | f3/2 z/ Tg3/2f/4g/4 f3/2 z/ d/>B,/ A,/>f/ | %2
 f3/2g/4f/4 e/>d/Tc/>B/ ^A/>G/ F/>E/ D/>B/ C/>c/ | %3
 d3/4B,/8C/8 D/>E/ F/D/4E/4 F/A/4G/4 A>A d/f/4e/4 f/>A/ | %4
 B/ z/ z3/4 d/4 g3/4 z/4 z3/4 B/4 g3/4f/8e/8 a/>g/ f/>E/ G/>e/ | %5
 d/<c/B/<A/ a/>G/ F3/4G/8E/8 aa/4a/4g/4f/4 b/>a/Tg/>f/ | %6
 g/>e/ B/>G/ E/>d/ c/>B/ ^A/>g/ f/>E/ D/>F/B/4d/4f/ | %7
 ^G/>B/e/>D/ (3C/D/E/(3F/=G/B,/ e3/4f/8g/8f/>e/ f/4e/4f/4e/4d/4c/4d/ | %8
 c3/2F/4^G/4 (3^A/B/c/(3d/e/f/ (3g/f/e/(3^a/b/c'/ f/>B/A/>e/ | %9
 (3B,/E/G/(3^A/c/e/ (3d/c/B/ ^g/>g/ g3/2a/4b/4 b/>g/a/>f/ | %10
 ^g3/4^e/8c/8c'/>c'/ c'/>=e/^A/>e/ B,/>e/d/>f/ (3b/c'/^a/(3b/d'/c'/ | %11
 d'/>^e/^G/>e/ C/>d'/c'/>b/ a/a/8^g/8f/8e/8 f/>b/ g>f | %12
 f3/2e/4d/4 (3e/d/c/(3d/B/^E/ (3F/^A/c/f- f/>=E/D/>C/ | f3/2 z/ Tg3/2f/4g/4 f3/2 z/ d/>B,/ A,/>f/ | %14
 f3/2g/4f/4 e/>d/Tc/>B/ ^A/>G/ F/>E/ D/>B/ C/>c/ | %15
 d3/4B,/8C/8 D/>E/ F/D/4E/4 F/A/4G/4 A>A d/f/4e/4 f/>A/ | %16
 B/ z/ z3/4 d/4 g3/4 z/4 z3/4 B/4 g3/4f/8e/8 a/>g/ f/>E/ G/>e/ | %17
 d/<c/B/<A/ a/>G/ F3/4G/8E/8 aa/4a/4g/4f/4 b/>a/Tg/>f/ | %18
 g/>e/ B/>G/ E/>d/ c/>B/ ^A/>g/ f/>E/ D/>F/B/4d/4f/ | %19
 ^G/>B/e/>D/ (3C/D/E/(3F/=G/B,/ e3/4f/8g/8f/>e/ f/4e/4f/4e/4d/4c/4d/ | %20
 c3/2F/4^G/4 (3^A/B/c/(3d/e/f/ (3g/f/e/(3^a/b/c'/ f/>B/A/>e/ | %21
 (3B,/E/G/(3^A/c/e/ (3d/c/B/ ^g/>g/ g3/2a/4b/4 b/>g/a/>f/ | %22
 ^g3/4^e/8c/8c'/>c'/ c'/>=e/^A/>e/ B,/>e/d/>f/ (3b/c'/^a/(3b/d'/c'/ | %23
 d'/>^e/^G/>e/ C/>d'/c'/>b/ a/a/8^g/8f/8e/8 f/>b/ g>f | %24
 f3/2e/4d/4 (3e/d/c/(3d/B/^E/ (3F/^A/c/f- f3/2 c/ | %25
 c3/4d/8e/8d/>B/ ^A/>F/E3/4D/8E/8 (3D/F/B/(3D/C/B,/ ^A,/>c/F/>E/ | %26
 D3/4B,/8C/8D/>E/ (3F/G/A/(3B/=c/A/ ^D>F B/>B/^c/>^d/ | %27
 e3/4g/8f/8g/>B/ (3=c/B/A/(3g/f/e/ (3e/^d/^c/(3d/c/B/ b3/4B/8c/8=d/4e/4=f/ | %28
 ^G/e/b/=c'/4d'/4 d'/>c'/d'/>b/ c'3/2 z/ (3=c/B/A/(3f/g/a/ | %29
 a3/4g/8f/8b/>a/ Tg/>f/g/4a/4f/ (3g/e/B/(3G/E/B,/ (3D/G/B/(3d/e/=f/ | %30
 e/e/8d/8=c/8B/8c/>e/ T^A3/2B/4A/4 (3B/c/^d/(3e/g/f/ eTd/>e/ | %31
 e3/2 z/ (3G/A/B/(3c/d/e/ C/>E/A/>G/ F/>a/E/>g/ | %32
 (3D/A/g/ (3f/e/^a/ (3b/f/e/ (3d/c/e/ (3^A/G/F/ (3E/A/g/ f/>D/C/>e/ | %33
 B,/-B,/8e/8d/8c/8d/>e/ (3f/e/f/ (3g/a/b/ =c3/4a/8g/8 (3f/e/d/ (3c/B/c/ a/>c/ | %34
 (3^D/F/B/(3^d/f/a/ (3=c'/b/a/(3g/a/f/ g/>f/e/>d/ (3=c/e/d/(3c/^A/B/ | %35
 (3^A/c/g/(3f/A/E/ D3/4b/8a/8g/>f/ (3^e/f/^g/f/>B/ Tdc/4B/4c/ | %36
 B3/2d/4c/4 (3d/B/d/(3f/b/^a/ b3 z/ c/ | %37
 c3/4d/8e/8d/>B/ ^A/>F/E3/4D/8E/8 (3D/F/B/(3D/C/B,/ ^A,/>c/F/>E/ | %38
 D3/4B,/8C/8D/>E/ (3F/G/A/ (3B/=c/A/ ^D>F B/>B/^c/>^d/ | %39
 e3/4g/8f/8g/>B/ (3=c/B/A/(3g/f/e/ (3e/^d/^c/(3d/c/B/ b3/4B/8c/8=d/4e/4=f/ | %40
 ^G/e/b/=c'/4d'/4 d'/>c'/d'/>b/ c'3/2 z/ (3=c/B/A/(3f/g/a/ | %41
 a3/4g/8f/8b/>a/ Tg/>f/g/4a/4f/ (3g/e/B/(3G/E/B,/ (3D/G/B/(3d/e/=f/ | %42
 e/e/8d/8=c/8B/8c/>e/ T^A3/2B/4A/4 (3B/c/^d/(3e/g/f/ eTd/>e/ | %43
 e3/2 z/ (3G/A/B/(3c/d/e/ C/>E/A/>G/ F/>a/E/>g/ | %44
 (3D/A/g/ (3f/e/^a/ (3b/f/e/ (3d/c/e/ (3^A/G/F/ (3E/A/g/ f/>D/C/>e/ | %45
 B,/-B,/8e/8d/8c/8d/>e/ (3f/e/f/ (3g/a/b/ =c3/4a/8g/8 (3f/e/d/ (3c/B/c/ a/>c/ | %46
 (3^D/F/B/(3^d/f/a/ (3=c'/b/a/(3g/a/f/ g/>f/e/>d/ (3=c/e/d/(3c/^A/B/ | %47
 (3^A/c/g/(3f/A/E/ D3/4b/8a/8g/>f/ (3^e/f/^g/f/>B/ Tdc/4B/4c/ | %48
 B3/2d/4c/4 (3d/B/d/(3f/b/^a/ !fermata!b3 z |[Q:1/4=120]"^Allegretto""^Double" z4 z2 z z/ f/ | %50
 B/d/f/b/ g/e/c/e/ ^A/g/f/e/ d/B/F/=A/ | G/f/e/d/ c/e/g/B/ ^A/c/F/E/ D/B/C/c/ | %52
 d/F/B,/C/ D/E/F/G/ A/D/F/A/ d/e/f/A/ | B/G/B/d/ g/B/G/E/ C/E/A/g/ f/D/G/e/ | %54
 c/A/c/e/ a/=c/A/F/ ^D/F/B/f/ a/=c'/b/a/ | g/b/g/e/ B/d/c/B/ ^A/g/f/E/ D/F/B/d/ | %56
 ^G/f/e/D/ C/E/G/B,/ ^A,/F/c/e/ d/F/B,/d/ | c/f/c/^A/ F/A/c/E/ D/f/d/B/ ^G/B/e/A/ | %58
 B/e/f/c/ d/B/^g/B/ ^E/c/b/g/ a/c/F/a/ | ^g/c/^e/g/ c'/=e/^A/e/ B,/F/e/c/ d/f/b/c'/ | %60
 d'/^e/^G/e/ C/d'/e/c'/ b/a/^g/f/ c/f/g/e/ | f/c/^A/e/ d/^E/^G/B/ A/F/A/c/ f3/2 f/ | %62
 B/d/f/b/ g/e/c/e/ ^A/g/f/e/ d/B/F/=A/ | G/f/e/d/ c/e/g/B/ ^A/c/F/E/ D/B/C/c/ | %64
 d/F/B,/C/ D/E/F/G/ A/D/F/A/ d/e/f/A/ | B/G/B/d/ g/B/G/E/ C/E/A/g/ f/D/G/e/ | %66
 c/A/c/e/ a/=c/A/F/ ^D/F/B/f/ a/=c'/b/a/ | g/b/g/e/ B/d/c/B/ ^A/g/f/E/ D/F/B/d/ | %68
 ^G/f/e/D/ C/E/G/B,/ ^A,/F/c/e/ d/F/B,/d/ | c/f/c/^A/ F/A/c/E/ D/f/d/B/ ^G/B/e/A/ | %70
 B/e/f/c/ d/B/^g/B/ ^E/c/b/g/ a/c/F/a/ | ^g/c/^e/g/ c'/=e/^A/e/ B,/F/e/c/ d/f/b/c'/ | %72
 d'/^e/^G/e/ C/d'/e/c'/ b/a/^g/f/ c/f/g/e/ | f/c/^A/e/ d/^E/^G/B/ A/F/A/c/ f3/2 c/ | %74
 c/g/e/c/ ^A/F/c/E/ D/F/B/D/ C/B,/^A,/E/ | D/B,/D/F/ B/G/F/E/ ^D/F/A/=c/ B/A/f/A/ | %76
 G/B/e/g/ f/a/^d/e/ B/e/d/f/ b/f/_e/A/ | ^G/B/e/^g/ b/d'/=c'/b/ c'/a/e/=c/ A/=g/f/e/ | %78
 ^d/f/a/=c'/ b/a/d/a/ g/b/g/e/ B/g/d'/=f/ | e/B/=c/e/ ^A/B/^D/E/ G,/E/B/g/ f/e/B/^d/ | %80
 E/G/B/e/ B/G/E/G/ C/A/e/G/ F/a/E/g/ | D/g/f/e/ d/f/^a/b/ e/c/^A/c/ D/f/C/e/ | %82
 B,/e/d/c/ B/d/f/g/ =c/A/F/A/ D/F/A/c/ | f/B/^D/F/ B/^d/f/a/ g/e/B/=d/ =c/e/g/B/ | %84
 ^A/g/f/E/ D/b/^a/b/ =f/^f/A/B/ F/d/c/A/ | B/B,/D/F/ B/d/f/^a/ b/f/d/B/ B,3/2 c/ | %86
 c/g/e/c/ ^A/F/c/E/ D/F/B/D/ C/B,/^A,/E/ | D/B,/D/F/ B/G/F/E/ ^D/F/A/=c/ B/A/f/A/ | %88
 G/B/e/g/ f/a/^d/e/ B/e/d/f/ b/f/_e/A/ | ^G/B/e/^g/ b/d'/=c'/b/ c'/a/e/=c/ A/=g/f/e/ | %90
 ^d/f/a/=c'/ b/a/d/a/ g/b/g/e/ B/g/d'/=f/ | e/B/=c/e/ ^A/B/^D/E/ G,/E/B/g/ f/e/B/^d/ | %92
 E/G/B/e/ B/G/E/G/ C/A/e/G/ F/a/E/g/ | D/g/f/e/ d/f/^a/b/ e/c/^A/c/ D/f/C/e/ | %94
 B,/e/d/c/ B/d/f/g/ =c/A/F/A/ D/F/A/c/ | f/B/^D/F/ B/^d/f/a/ g/e/B/=d/ =c/e/g/B/ | %96
 ^A/g/f/E/ D/b/^a/b/ =f/^f/A/B/ F/d/c/A/ | B/B,/D/F/ B/d/f/^a/ b/f/d/B/ B,3/2 z/ | %98
[M:3/4][Q:1/4=184]"^Presto""^Corrente" z4 z B | BB, DF Bd | cF ^A,E DC | B,D FB df | eA CG FE | %103
 DF Ad fa | gB Ed cB | ^Ag fE ^D=A | ^Gf eD CE | ^Ae ed cd | cF ^A,G FE | DF Bd fb | gB EG Bd | %111
 cE A,C EG | Fd ae d=c | BG Bd gb | c'e Ge ac' | d'a fd Ac' | Dd' c'b ^ab | c'e ^Ag fe | %118
 df b^g af | ^e^g bd' c'B | Ac fa c'e | ^df ac' bA | ^GB ^e^g bF | ^E^G c^e ^gb | ac Fg fe | %125
 dF B,=c BA | GB dg ^ef | B^E ^G,E Bd | cA ^GF C^E | F^A ce dB | c^A F3 B | BB, DF Bd | %132
 cF ^A,E DC | B,D FB df | eA CG FE | DF Ad fa | gB Ed cB | ^Ag fE ^D=A | ^Gf eD CE | ^Ae ed cd | %140
 cF ^A,G FE | DF Bd fb | gB EG Bd | cE A,C EG | Fd ae d=c | BG Bd gb | c'e Ge ac' | d'a fd Ac' | %148
 Dd' c'b ^ab | c'e ^Ag fe | df b^g af | ^e^g bd' c'B | Ac fa c'e | ^df ac' bA | ^GB ^e^g bF | %155
 ^E^G c^e ^gb | ac Fg fe | dF B,=c BA | GB dg ^ef | B^E ^G,E Bd | cA ^GF C^E | F^A ce dB | %162
 c^A F3 c | cf c^A FD | ^G,E ^A,F ce | dF B,F Bd | eA ^DA fA | GE GB eg | ad ^Gd bd | =ce af ge | %170
 ^df a=c' bA | Gb aF Eg | fB ^DA GF | Eg fD =Ce | d^G B,=f ed | =cA ce =fa | ^dF A,f _eB | %177
 bg eg B^d | EF GB ^de | ^gB DB eg | ae ce cA | Fd B^G ed | ce cA EG | Fa gE Df | eA CB AG | %185
 Fd cE DB | CE GB AG | F=C B,G AA, | G,D Bd ce | aG Fd A,c | dD CB, ^A,B, | ^A,C F^A ce | %192
 df dB ^GB | ^E^G c^e ^gb | ^ac' af ce | ^d=c' bA ^G=d | cb aG F=c | Ba gF EB | ^Ag fE ^D=A | %199
 ^GB df eD | CB, ^A,g fe | df dB F^A | BA GF E^D | E^D E^G, Ed | cB A^G F=F | F^E F^A, Fe | %206
 ^df a=c' ba | gf ^ef cd | e^A Bc FA | B,D FB df | b4 z c | cf c^A FD | ^G,E ^A,F ce | dF B,F Bd | %214
 eA ^DA fA | GE GB eg | ad ^Gd bd | =ce af ge | ^df a=c' bA | Gb aF Eg | fB ^DA GF | Eg fD =Ce | %222
 d^G B,=f ed | =cA ce =fa | ^dF A,f _eB | bg eg B^d | EF GB ^de | ^gB DB eg | ae ce cA | %229
 Fd B^G ed | ce cA EG | Fa gE Df | eA CB AG | Fd cE DB | CE GB AG | F=C B,G AA, | G,D Bd ce | %237
 aG Fd A,c | dD CB, ^A,B, | ^A,C F^A ce | df dB ^GB | ^E^G c^e ^gb | ^ac' af ce | ^d=c' bA ^G=d | %244
 cb aG F=c | Ba gF EB | ^Ag fE ^D=A | ^GB df eD | CB, ^A,g fe | df dB F^A | BA GF E^D | %251
 E^D E^G, Ed | cB A^G F=F | F^E F^A, Fe | ^df a=c' ba | gf ^ef cd | e^A Bc FA | B,D FB df | b4 z2 | %259
[M:3/4][Q:1/4=132]"^Double presto" z4 z z/ B/ | BA/G/ F/E/D/C/ B,/D/C/B,/ | %261
 ^A,/C/D/E/ F/^G/^A/B/ c/d/e/c/ | d/B/A/G/ F/E/D/C/ B,/D/C/B,/ | C/E/F/G/ A/B/c/d/ e/f/g/e/ | %264
 f/d/c/B/ A/G/F/E/ D/F/E/D/ | E/G/A/B/ =c/d/e/f/ g/e/f/g/ | ^A/c/d/e/ f/G/F/E/ ^D/=c/B/A/ | %267
 ^G/B/c/d/ e/F/E/D/ C/d/c/B/ | ^A/g/f/e/ d/f/^g/^a/ b/d/c/B/ | F/c/d/e/ f/^g/^a/b/ c'/d'/e'/c'/ | %270
 d'/b/a/g/ f/e/d/c/ B/A/^G/F/ | E/B/c/d/ e/f/^g/a/ b/c'/d'/b/ | c'/a/^g/f/ e/d/c/B/ A/G/F/E/ | %273
 D/A/B/c/ d/e/f/g/ a/b/=c'/a/ | b/g/f/e/ d/=c/B/A/ G/F/E/D/ | C/E/F/G/ A/B/c/d/ e/f/g/e/ | %276
 f/a/b/c'/ d'/f/e/d/ A/e/d'/c'/ | d'/a/f/d'/ a/f/d/a/ f/d/c/B/ | ^A/g/f/e/ c'/b/^a/^g/ f/e/d/c/ | %279
 d/B/d/f/ b/c'/d'/c'/ b/a/^g/f/ | ^e/c'/^g/e/ c/g/e/c/ B/d/c/B/ | A/c/f/^g/ a/b/c'/b/ a/g/f/e/ | %282
 ^d/b/f/d/ B/f/d/B/ A/c/B/A/ | ^G/f/d/B/ G/d/B/G/ F/A/G/F/ | ^E/^G/A/B/ c/^d/^e/f/ ^g/a/b/g/ | %285
 a/f/e/d/ c/B/A/^G/ F/E/D/C/ | B,/F/G/A/ B/c/d/e/ f/g/a/f/ | g/b/g/d/ B/g/d/B/ G/d/B/G/ | %288
 ^E/B/^G/=F/ C/^D/F/^F/ G/A/B/G/ | A/F/A/c/ f/A/^G/F/ C/G/f/^e/ | f/F/^A/c/ e/F/A/c/ d/F/B/d/ | %291
 c/B/^A/^G/ F/A/c/^e/ f>B | BA/G/ F/E/D/C/ B,/D/C/B,/ | ^A,/C/D/E/ F/^G/^A/B/ c/d/e/c/ | %294
 d/B/A/G/ F/E/D/C/ B,/D/C/B,/ | C/E/F/G/ A/B/c/d/ e/f/g/e/ | f/d/c/B/ A/G/F/E/ D/F/E/D/ | %297
 E/G/A/B/ =c/d/e/f/ g/e/f/g/ | ^A/c/d/e/ f/G/F/E/ ^D/=c/B/A/ | ^G/B/c/d/ e/F/E/D/ C/d/c/B/ | %300
 ^A/g/f/e/ d/f/^g/^a/ b/d/c/B/ | F/c/d/e/ f/^g/^a/b/ c'/d'/e'/c'/ | d'/b/a/g/ f/e/d/c/ B/A/^G/F/ | %303
 E/B/c/d/ e/f/^g/a/ b/c'/d'/b/ | c'/a/^g/f/ e/d/c/B/ A/G/F/E/ | D/A/B/c/ d/e/f/g/ a/b/=c'/a/ | %306
 b/g/f/e/ d/=c/B/A/ G/F/E/D/ | C/E/F/G/ A/B/c/d/ e/f/g/e/ | f/a/b/c'/ d'/f/e/d/ A/e/d'/c'/ | %309
 d'/a/f/d'/ a/f/d/a/ f/d/c/B/ | ^A/g/f/e/ c'/b/^a/^g/ f/e/d/c/ | d/B/d/f/ b/c'/d'/c'/ b/a/^g/f/ | %312
 ^e/c'/^g/e/ c/g/e/c/ B/d/c/B/ | A/c/f/^g/ a/b/c'/b/ a/g/f/e/ | ^d/b/f/d/ B/f/d/B/ A/c/B/A/ | %315
 ^G/f/d/B/ G/d/B/G/ F/A/G/F/ | ^E/^G/A/B/ c/^d/^e/f/ ^g/a/b/g/ | a/f/e/d/ c/B/A/^G/ F/E/D/C/ | %318
 B,/F/G/A/ B/c/d/e/ f/g/a/f/ | g/b/g/d/ B/g/d/B/ G/d/B/G/ | ^E/B/^G/=F/ C/^D/F/^F/ G/A/B/G/ | %321
 A/F/A/c/ f/A/^G/F/ C/G/f/^e/ | f/F/^A/c/ e/F/A/c/ d/F/B/d/ | c/B/^A/^G/ F/A/c/^e/ f3/2 c/ | %324
 c/F/^G/^A/ B/c/d/e/ f/^g/^a/f/ | b/f/e/d/ c/B/^A/^G/ F/E/D/C/ | D/B,/D/F/ B/D/F/B/ d/B/d/f/ | %327
 e/d/c/B/ A/G/F/E/ ^D/=c/B/A/ | G/E/G/B/ e/G/B/e/ g/e/g/b/ | a/g/f/e/ d/=c/B/A/ ^G/=f/e/d/ | %330
 =c/A/c/e/ a/b/=c'/b/ a/g/f/e/ | ^d/B/d/f/ a/g/f/e/ d/c/B/A/ | G/B/e/G/ F/A/d/F/ E/G/=c/E/ | %333
 ^D/F/A/=c/ B/^c/^d/e/ f/g/a/f/ | g/B/E/B/ f/B/D/B/ e/A/=C/A/ | d/^G/B,/=C/ D/E/F/G/ A/B/=c/d/ | %336
 e/=c/A/B/ c/d/e/f/ g/a/b/=c'/ | ^d/b/f/d/ B/f/d/B/ A/=c/B/A/ | G/B/c/^d/ e/G/F/E/ B,/F/e/d/ | %339
 e/E/F/G/ A/B/c/^d/ e/f/g/a/ | b/c'/d'/c'/ b/a/^g/f/ e/d/c/B/ | c/d/e/d/ c/B/A/^G/ F/E/D/C/ | %342
 D/E/F/E/ D/C/B,/A/ ^G/F/E/d/ | c/A/c/e/ g/f/e/d/ c/B/A/G/ | F/A/d/F/ E/G/c/E/ D/F/B/D/ | %345
 C/E/G/B/ A/B/c/d/ e/f/g/e/ | f/A/D/A/ e/A/C/A/ d/G/B,/G/ | c/G/A,/B,/ C/D/E/F/ G/B/A/G/ | %348
 F/D/F/A/ =c/A/c/f/ a/d/f/a/ | b/=c'/b/a/ g/f/e/d/ c/B/A/G/ | F/A/B/c/ d/F/E/D/ A,/E/d/c/ | %351
 d/A/F/d/ A/F/D/A/ F/D/C/B,/ | ^A,/G/F/E/ c/B/^A/^G/ F/E/D/C/ | D/B,/D/F/ B/c/d/c/ B/A/^G/F/ | %354
 ^E/C/E/^G/ c/G/c/^e/ ^g/d/c/B/ | ^A/f/c/A/ F/c/A/F/ E/G/F/E/ | ^D/f/^g/a/ b/c/B/A/ ^G/F/E/D/ | %357
 C/e/f/g/ a/B/A/G/ F/E/D/=C/ | B,/d/e/f/ g/A/G/F/ E/D/C/B,/ | ^A,/c/d/e/ f/G/F/E/ ^D/C/B,/=A,/ | %360
 ^G,/B,/C/D/ E/F/^G/^A/ B/c/d/B/ | c/f/e/d/ c/B/^A/^G/ F/E/D/C/ | D/B,/D/F/ B/d/f/B/ F/B/c/^A/ | %363
 B/G/B/d/ f/e/d/c/ B/A/^G/F/ | E/F/E/d/ b/a/b/d/ E/F/E/d/ | c/A/c/e/ g/f/e/d/ c/B/^A/^G/ | %366
 F/G/F/e/ c'/b/c'/e/ F/G/F/e/ | ^d/B/d/f/ a/g/f/e/ d/=c'/b/a/ | g/f/^e/f/ c/d/^A/B/ ^E/F/A/B/ | %369
 e/^a/c'/e/ d/b/c/B/ F/c/b/a/ | b/d'/b/f/ b/f/d/f/ d/B/f/d/ | B/d/B/F/ B/F/D/F/ B,3/2 c/ | %372
 c/F/^G/^A/ B/c/d/e/ f/^g/^a/f/ | b/f/e/d/ c/B/^A/^G/ F/E/D/C/ | D/B,/D/F/ B/D/F/B/ d/B/d/f/ | %375
 e/d/c/B/ A/G/F/E/ ^D/=c/B/A/ | G/E/G/B/ e/G/B/e/ g/e/g/b/ | a/g/f/e/ d/=c/B/A/ ^G/=f/e/d/ | %378
 =c/A/c/e/ a/b/=c'/b/ a/g/f/e/ | ^d/B/d/f/ a/g/f/e/ d/c/B/A/ | G/B/e/G/ F/A/d/F/ E/G/=c/E/ | %381
 ^D/F/A/=c/ B/^c/^d/e/ f/g/a/f/ | g/B/E/B/ f/B/D/B/ e/A/=C/A/ | d/^G/B,/=C/ D/E/F/G/ A/B/=c/d/ | %384
 e/=c/A/B/ c/d/e/f/ g/a/b/=c'/ | ^d/b/f/d/ B/f/d/B/ A/=c/B/A/ | G/B/c/^d/ e/G/F/E/ B,/F/e/d/ | %387
 e/E/F/G/ A/B/c/^d/ e/f/g/a/ | b/c'/d'/c'/ b/a/^g/f/ e/d/c/B/ | c/d/e/d/ c/B/A/^G/ F/E/D/C/ | %390
 D/E/F/E/ D/C/B,/A/ ^G/F/E/d/ | c/A/c/e/ g/f/e/d/ c/B/A/G/ | F/A/d/F/ E/G/c/E/ D/F/B/D/ | %393
 C/E/G/B/ A/B/c/d/ e/f/g/e/ | f/A/D/A/ e/A/C/A/ d/G/B,/G/ | c/G/A,/B,/ C/D/E/F/ G/B/A/G/ | %396
 F/D/F/A/ =c/A/c/f/ a/d/f/a/ | b/=c'/b/a/ g/f/e/d/ c/B/A/G/ | F/A/B/c/ d/F/E/D/ A,/E/d/c/ | %399
 d/A/F/d/ A/F/D/A/ F/D/C/B,/ | ^A,/G/F/E/ c/B/^A/^G/ F/E/D/C/ | D/B,/D/F/ B/c/d/c/ B/A/^G/F/ | %402
 ^E/C/E/^G/ c/G/c/^e/ ^g/d/c/B/ | ^A/f/c/A/ F/c/A/F/ E/G/F/E/ | ^D/f/^g/a/ b/c/B/A/ ^G/F/E/D/ | %405
 C/e/f/g/ a/B/A/G/ F/E/D/=C/ | B,/d/e/f/ g/A/G/F/ E/D/C/B,/ | ^A,/c/d/e/ f/G/F/E/ ^D/C/B,/=A,/ | %408
 ^G,/B,/C/D/ E/F/^G/^A/ B/c/d/B/ | c/f/e/d/ c/B/^A/^G/ F/E/D/C/ | D/B,/D/F/ B/d/f/B/ F/B/c/^A/ | %411
 B/G/B/d/ f/e/d/c/ B/A/^G/F/ | E/F/E/d/ b/a/b/d/ E/F/E/d/ | c/A/c/e/ g/f/e/d/ c/B/^A/^G/ | %414
 F/G/F/e/ c'/b/c'/e/ F/G/F/e/ | ^d/B/d/f/ a/g/f/e/ d/=c'/b/a/ | g/f/^e/f/ c/d/^A/B/ ^E/F/A/B/ | %417
 e/^a/c'/e/ d/b/c/B/ F/c/b/a/ | b/d'/b/f/ b/f/d/f/ d/B/f/d/ | B/d/B/F/ B/F/D/F/ B,3/2 z/ | %420
[M:3/4] z6 | f2 g2 fe | f3 e dc | Be dc dB | ^A3 G FE | B2 A2 F/E/G | c3 d e2 | ed ed cB | %428
 f3 z z2 | f2 g2 fe | f3 e dc | Be dc dB | ^A3 G FE | B2 A2 F/E/G | c3 d e2 | ed ed cB | f6 | %437
 ^a2 a2 a2 | Bf ba ^gf | e2 f2 ^g2 | a3 g fe | ^d=c' be d z | c/B/c/B/ Ba g2 | gf fe e^d | %444
 e3 z z2 | e2 dc BA | d3 e f2 | b2 g2 f2 | e3 f g2 | B^A/g/ fe dc | d3 e f2 | f2 ed cB | ^A3 G FE | %453
 B2 c2 d2 | d z z4 | c/B/c d/c/d e2 | e^A ce ^ae | b2 a2 g2 | ^Ag fe d2 | z c c3 B | B6 | %461
 ^a2 a2 a2 | Bf ba ^gf | e2 f2 ^g2 | a3 g fe | ^d=c' be d z | c/B/c/B/ Ba g2 | gf fe e^d | %468
 e3 z z2 | e2 dc BA | d3 e f2 | b2 g2 f2 | e3 f g2 | B^A/g/ fe dc | d3 e f2 | f2 ed cB | ^A3 G FE | %477
 B2 c2 d2 | d z z4 | c/B/c d/c/d e2 | e^A ce ^ae |[K:D] b2 a2 g2 | ^Ag fe d2 | z c c3 B | B6 | z6 | %486
[M:9/8][Q:1/4=184]"^Doubel" Bdf ged cag | fdc dAF Ddc | BGF Eed ^EcB | ^Afc A=GF EDC | %490
 DFB CBA B,AG | A,CE Gce ^Afe | dBA Ged c^AB | F^Ac fgf edc | Bdf ged cag | fdc dAF Ddc | %496
 BGF Eed ^EcB | ^Afc A=GF EDC | DFB CBA B,AG | A,CE Gce ^Afe | dBA Ged c^AB | fc^A F4 z2 | %502
 Fc^a acF EDC | DFB dfb a^gf | e^Gd cAf dB^g | aec Ace gfe | ^dA=c' beG Fda | =cAE ^DBa g^de | %508
 Agf BGe FA^d | eBG EGB efg | aed cBA GFE | FAc dfe fAD | G,DB cba gef | ecB cA^G AE=G | %514
 ^Ace gfe dec | dBc dfe fAF | GBf ecd c^AB | ^AcB A^GF EDC | DFB B^Ac cBd | dB^G EGB d^gb | %520
 EGc cBd dce | ec^A FAc e^ac' | dbF caE BgD | CEG ^Ace gfe | ^ab^e fcd FB^A | BFD B,DF Bcd | %526
 Fc^a acF EDC | DFB dfb a^gf | e^Gd cAf dB^g | aec Ace gfe | ^dA=c' beG Fda | =cAE ^DBa g^de | %532
 Agf BGe FA^d | eBG EGB efg | aed cBA GFE | FAc dfe fAD | G,DB cba gef | ecB cA^G AE=G | %538
 ^Ace gfe dec | dBc dfe fAF | GBf ecd c^AB | ^AcB A^GF EDC | DFB B^Ac cBd | dB^G EGB d^gb | %544
 EGc cBd dce | ec^A FAc e^ac' | dbF caE BgD | CEG ^Ace gfe | ^ab^e fcd FB^A | %549
 B,DF Bdf !fermata!b2 z |[M:4/4][Q:1/4=184]"^Tempo di Borea" z4 z2 f2 | b2 f2 b2 f2 | g2 gf e2 g2 | %553
 f2 e2 Td2 c2 | edcd B2 dc | d2 F2 G2 d2 | c2 cB c2 ae | c2 E2 F2 c2 | B2 BA B2 bg | e2 ge c2 ec | %560
 A2 Bc defg | a2 d2 e2 c2 | dc d2 b2 d2 | cB c2 a2 =c2 | B2 d2 cd e2 | G2 GF G2 eF | G2 eF G2 eF | %567
 G2 c2 a4- | ad'c'b agba | gfed A2 c2 | d6 f2 | b2 f2 b2 f2 | g2 gf e2 g2 | f2 e2 Td2 c2 | %574
 edcd B2 dc | d2 F2 G2 d2 | c2 cB c2 ae | c2 E2 F2 c2 | B2 BA B2 bg | e2 ge c2 ec | A2 Bc defg | %581
 a2 d2 e2 c2 | dc d2 b2 d2 | cB c2 a2 =c2 | B2 d2 cd e2 | G2 GF G2 eF | G2 eF G2 eF | G2 c2 a4- | %588
 ad'c'b agba | gfed A2 c2 | d6 f2 | e2 f2 g2 f2 | e2 ed e2 a2 | c2 d2 e2 d2 | c2 cB c2 ^d2 | %595
 e2 g2 B,2 f2 | e^d e2 e2 gf | g2 b2 Tg2 fe | e6 g2 | c2 g2 c2 g2 | g2 fe f2 b2 | c2 b2 c2 a2 | %602
 ^gf^e^d c2 c'b | c'2 e2 e2 c'2 | e2 dc d2 b^a | b2 d2 d2 b2 | c^d^ef ^gabg | ba^gf c2 ^e2 | %608
 f2 FG FE^DC | B,2 a2 ^d2 a2 | a2 gf gEFG | A,2 g2 c2 g2 | g2 fe fdcB | ^A2 e2 G2 e2 | Fced egfe | %615
 dcBA G^ABc | dBc^A Fcf^g | ^abab c'd'c'd' | e'f^Af e'fAB | cdef ^g^abc' | d'^eBe d'=fBc | %621
 dedc BA^GF | ^Ed'c'b ^agfe | dcdB F2 ^A2 | B2 dc B2 B,A, | G,2 dc B^A B2 | f2 B^A B2 =cB | %627
 AGFE ^D=cBA | GFEF GABc | dfb^g ^ecd'c' | b^abc' f2 c'd | e2 c'd e2 c'd | e2 gf g4- | gfed cB^Ac | %634
 EGFE DCB,^A, | b2 f2 b2 f2 | g2 gf e2 g2 | f2 e2 d2 ec | B6 f2 | e2 f2 g2 f2 | e2 ed e2 a2 | %641
 c2 d2 e2 d2 | c2 cB c2 ^d2 | e2 g2 B,2 f2 | e^d e2 e2 gf | g2 b2 Tg2 fe | e6 g2 | c2 g2 c2 g2 | %648
 g2 fe f2 b2 | c2 b2 c2 a2 | ^gf^e^d c2 c'b | c'2 e2 e2 c'2 | e2 dc d2 b^a | b2 d2 d2 b2 | %654
 c^d^ef ^gabg | ba^gf c2 ^e2 | f2 FG FE^DC | B,2 a2 ^d2 a2 | a2 gf gEFG | A,2 g2 c2 g2 | %660
 g2 fe fdcB | ^A2 e2 G2 e2 | Fced egfe | dcBA G^ABc | dBc^A Fcf^g | ^abab c'd'c'd' | e'f^Af e'fAB | %667
 cdef ^g^abc' | d'^eBe d'=fBc | dedc BA^GF | ^Ed'c'b ^agfe | dcdB F2 ^A2 | B2 dc B2 B,A, | %673
 G,2 dc B^A B2 | f2 B^A B2 =cB | AGFE ^D=cBA | GFEF GABc | dfb^g ^ecd'c' | b^abc' f2 c'd | %679
 e2 c'd e2 c'd | e2 gf g4- | gfed cB^Ac | EGFE DCB,^A, | b2 f2 b2 f2 | g2 gf e2 g2 | f2 e2 d2 ec | %686
 B6 z2 |[M:4/4]"^Double" z4 z Bdf | bfdB dfbf | gfed cB^Ag | fdce dBFc | edcd BFBc | dBFD B,DGB | %693
 cGA,G ceae | cAEC A,CFA | BFG,F Bdfa | bgeg ecec | GABc defg | aFAd GeAc | dAB,A dbd^G | %700
 cGA,G ca=cF | GBdF Ecde | GFED Cefg | EDCB, A,gab | c'd'e'd' c'bag | fegf edcB | AGFd EdA,c | %707
 dDFA dBdf | bfdB dfbf | gfed cB^Ag | fdce dBFc | edcd BFBc | dBFD B,DGB | cGA,G ceae | %714
 cAEC A,CFA | BFG,F Bdfa | bgeg ecec | GABc defg | aFAd GeAc | dAB,A dbd^G | cGA,G ca=cF | %721
 GBdF Ecde | GFED Cefg | EDCB, A,gab | c'd'e'd' c'bag | fegf edcB | AGFd EdA,c | dDFA dfaf | %728
 e2 f2 g2 f2 | edcd eGFd | c2 d2 e2 d2 | cBAB cAF^d | eBgA, B,gf^d | e^de=c BAGF | GBeb agfe | %735
 eBGB EBgd | ceAG FagE | Dgfe dfbd | ^Ec^gb acFa | ^gf^e^d cgab | c'eBe ^Aec'e | Bedc df^ga | %742
 bdAd ^GdFd | ^E^Gc^d ^ef^ga | ba^gf ca/g/ f=f | fBA^G FE^DC | B,^DFA =c^dfa | Eagf gDCB, | %748
 A,CEG ^Aceg | Dgfe dceB | B^Ae=A A^Ge=G | GFE^D EGFE | DB,DF G^ABc | FdcB ^AcF^G | ^ABcd efgf | %755
 ge^Ae gege | ge^AB cdef | ^g^eBe gege | ^g^eBc defg | ^aecd ef^ga | bc'd'b fbc'^a | bfec dB^AB | %762
 G,dcB ^ABeB | fdcB ^ABFG | A=cBA ^DAGF | EBcd ef^ge | BdcB ^EB^A^G | Fcde f^g^ab | c'e^Ae c'ec'e | %769
 c'e^AB cdef | gagf edcB | ^aba^g fedc | dBdf bfdB | gfed cB^Ag | fdce dBF^A | B,4 z faf | %776
 e2 f2 g2 f2 | edcd eGFd | c2 d2 e2 d2 | cBAB cAF^d | eBgA, B,gf^d | e^de=c BAGF | GBeb agfe | %783
 eBGB EBgd | ceAG FagE | Dgfe dfbd | ^Ec^gb acFa | ^gf^e^d cgab | c'eBe ^Aec'e | Bedc df^ga | %790
 bdAd ^GdFd | ^E^Gc^d ^ef^ga | ba^gf ca/g/ f=f | fBA^G FE^DC | B,^DFA =c^dfa | Eagf gDCB, | %796
 A,CEG ^Aceg | Dgfe dceB | B^Ae=A A^Ge=G | GFE^D EGFE | DB,DF G^ABc | FdcB ^AcF^G | ^ABcd efgf | %803
 ge^Ae gege | ge^AB cdef | ^g^eBe gege | ^g^eBc defg | ^aecd ef^ga | bc'd'b fbc'^a | bfec dB^AB | %810
 G,dcB ^ABeB | fdcB ^ABFG | A=cBA ^DAGF | EBcd ef^ge | BdcB ^EB^A^G | Fcde f^g^ab | c'e^Ae c'ec'e | %817
 c'e^AB cdef | gagf edcB | ^aba^g fedc | dBdf bfdB | gfed cB^Ag | fdce dBF^A | B,4 z4 |] %824
V:2
 z/ | F3/2 z/ e3/2 z/ F3/2 z/ z2 | D3/2 z/ z2 z4 | z4 F3/2 z/ z z/ z/4 D/4 | %4
 G/B/4A/4 G/>F/ E/>E/ F/>G/ E/ z/ z z2 | z4 ^D3/4 z/4 z z2 | z8 | z4 F3/4 z/4 z F z | %8
 F3/2 z/ z2 z4 | z4 =F3/2 z/ z ^F3/4 z/4 | ^E3/2 z/ z2 z4 | z2 z2 FA/>B/ c2 | F3/2 z/ z2 z4 | %13
 F3/2 z/ e3/2 z/ F3/2 z/ z2 | D3/2 z/ z2 z4 | z4 F3/2 z/ z z/ z/4 D/4 | %16
 G/B/4A/4 G/>F/ E/>E/ F/>G/ E/ z/ z z2 | z4 ^D3/4 z/4 z z2 | z8 | z4 F3/4 z/4 z F z | %20
 F3/2 z/ z2 z4 | z4 =F3/2 z/ z ^F3/4 z/4 | ^E3/2 z/ z2 z4 | z2 z2 FA/>B/ c2 | z8 | F3/2 z/ z2 z4 | %26
 z4 A,3/2 z/ z2 | E3/4 z/4 z z2 z4 | z4 A>B z2 | _e3/2 z/ z2 z4 | G3/4 z/4 z z2 G,/ z/ z B,/ z/ z | %31
 E>F z2 z4 | z8 | z4 A,3/4 z/4 z z2 | z4 E3/4 z/4 z z2 | z4 z z/ E/ F2 | B,3/2 z/ z2 F3 z | %37
 F3/2 z/ z2 z4 | z4 A,3/2 z/ z2 | E3/4 z/4 z z2 z4 | z4 A>B z2 | _e3/2 z/ z2 z4 | %42
 G3/4 z/4 z z2 G,/ z/ z B,/ z/ z | E>F z2 z4 | z8 | z4 A,3/4 z/4 z z2 | z4 E3/4 z/4 z z2 | %47
 z4 z z/ E/ F2 | B,3/2 z/ z2 F3 z | z8 | z8 | z8 | z8 | z8 | z8 | z8 | z8 | z8 | z8 | z8 | z8 | %61
 z8 | z8 | z8 | z8 | z8 | z8 | z8 | z8 | z8 | z8 | z8 | z8 | z8 | z8 | z8 | z8 | z8 | z8 | z8 | %80
 z8 | z8 | z8 | z8 | z8 | z8 | z8 | z8 | z8 | z8 | z8 | z8 | z8 | z8 | z8 | z8 | z8 | z8 | %98
[M:3/4] z4 z z | z6 | z6 | z6 | z6 | z6 | z6 | z6 | z6 | z2 [B,F] z z2 | z6 | z6 | z6 | z6 | z6 | %113
 z6 | z6 | z6 | z6 | z6 | z6 | z6 | z6 | z6 | z6 | z6 | z6 | z6 | z6 | z6 | z6 | z6 | z6 | z6 | %132
 z6 | z6 | z6 | z6 | z6 | z6 | z6 | z2 [B,F] z z2 | z6 | z6 | z6 | z6 | z6 | z6 | z6 | z6 | z6 | %149
 z6 | z6 | z6 | z6 | z6 | z6 | z6 | z6 | z6 | z6 | z6 | z6 | z6 | z6 | z6 | z6 | z6 | z6 | z6 | %168
 z6 | z6 | z6 | z6 | z6 | z6 | z6 | z6 | z6 | z6 | z6 | z6 | z6 | z6 | z6 | z6 | z6 | z6 | z6 | %187
 z6 | z6 | z6 | z6 | z6 | z6 | z6 | z6 | z6 | z6 | z6 | z6 | z6 | z6 | z6 | z6 | z6 | z6 | z6 | %206
 z6 | z6 | z6 | z6 | z6 | z6 | z6 | z6 | z6 | z6 | z6 | z6 | z6 | z6 | z6 | z6 | z6 | z6 | z6 | %225
 z6 | z6 | z6 | z6 | z6 | z6 | z6 | z6 | z6 | z6 | z6 | z6 | z6 | z6 | z6 | z6 | z6 | z6 | z6 | %244
 z6 | z6 | z6 | z6 | z6 | z6 | z6 | z6 | z6 | z6 | z6 | z6 | z6 | z6 | z6 |[M:3/4] z6 | z6 | z6 | %262
 z6 | z6 | z6 | z6 | z6 | z6 | z6 | z6 | z6 | z6 | z6 | z6 | z6 | z6 | z6 | z6 | z6 | z6 | z6 | %281
 z6 | z6 | z6 | z6 | z6 | z6 | z6 | z6 | z6 | z6 | z6 | z6 | z6 | z6 | z6 | z6 | z6 | z6 | z6 | %300
 z6 | z6 | z6 | z6 | z6 | z6 | z6 | z6 | z6 | z6 | z6 | z6 | z6 | z6 | z6 | z6 | z6 | z6 | z6 | %319
 z6 | z6 | z6 | z6 | z6 | z6 | z6 | z6 | z6 | z6 | z6 | z6 | z6 | z6 | z6 | z6 | z6 | z6 | z6 | %338
 z6 | z6 | z6 | z6 | z6 | z6 | z6 | z6 | z6 | z6 | z6 | z6 | z6 | z6 | z6 | z6 | z6 | z6 | z6 | %357
 z6 | z6 | z6 | z6 | z6 | z6 | z6 | z6 | z6 | z6 | z6 | z6 | z6 | z6 | z6 | z6 | z6 | z6 | z6 | %376
 z6 | z6 | z6 | z6 | z6 | z6 | z6 | z6 | z6 | z6 | z6 | z6 | z6 | z6 | z6 | z6 | z6 | z6 | z6 | %395
 z6 | z6 | z6 | z6 | z6 | z6 | z6 | z6 | z6 | z6 | z6 | z6 | z6 | z6 | z6 | z6 | z6 | z6 | z6 | %414
 z6 | z6 | z6 | z6 | z6 | z6 |[M:3/4] z6 | F2 E2 B2 | D3 z z2 | G2 E2 =F2 | F3 z z2 | D2 C2 B,2 | %426
 A,4 ^A,2 | B,2 G4 | F3 E DC | F2 E2 B2 | D3 z z2 | G2 E2 =F2 | F3 z z2 | D2 C2 B,2 | A,4 ^A,2 | %435
 B,2 G4 | F6 | F2 E2 F2 | D z z4 | ^G2 A2 D2 | E3 z z2 | A3 G Fa | E2 ^D2 E2 | A2 G2 F2 | %444
 E3 D CB, | G2 z4 | F2 E2 D2 | D2 E2 D2 | A4 z2 | C2 z4 | B,4 F2 | B2 z2 E2 | F3 z z2 | D2 C2 B,2 | %454
 E^G Bd ^gd | E2 D2 E2 | F2 z4 | F2 E2 D2 | C2 z2 B,2 | E2 F4 | B,6 | F2 E2 F2 | D z z4 | %463
 ^G2 A2 D2 | E3 z z2 | A3 G Fa | E2 ^D2 E2 | A2 G2 F2 | E3 D CB, | G2 z4 | F2 E2 D2 | D2 E2 D2 | %472
 A4 z2 | C2 z4 | B,4 F2 | B2 z2 E2 | F3 z z2 | D2 C2 B,2 | E^G Bd ^gd | E2 D2 E2 | F2 z4 | %481
[K:D] F2 E2 D2 | C2 z2 B,2 | E2 F4 | B,6 | z6 |[M:9/8] z9 | z9 | z9 | z9 | z9 | z9 | z9 | z9 | z9 | %495
 z9 | z9 | z9 | z9 | z9 | z9 | z9 | z9 | z9 | z9 | z9 | z9 | z9 | z9 | z9 | z9 | z9 | z9 | z9 | %514
 z9 | z9 | z9 | z9 | z9 | z9 | z9 | z9 | z9 | z9 | z9 | z9 | z9 | z9 | z9 | z9 | z9 | z9 | z9 | %533
 z9 | z9 | z9 | z9 | z9 | z9 | z9 | z9 | z9 | z9 | z9 | z9 | z9 | z9 | z9 | z9 | z9 |[M:4/4] z8 | %551
 F2 z2 F2 z2 | ^A2 z2 z2 E2 | D2 E2 z4 | B,2 z2 z4 | z2 B,2 B,2 z2 | A,2 z2 z4 | z2 A,2 A,2 z2 | %558
 G,2 z2 z4 | z8 | G2 z2 z4 | z2 F2 G2 A2 | B,2 z2 z2 ^G2 | A,2 z2 z2 A,2 | G,2 F2 E2 D2 | %565
 C2 z2 z4 | C2 z2 B,2 z2 | A,2 z2 z4 | z8 | z4 z2 A,2 | D6 z2 | F2 z2 F2 z2 | ^A2 z2 z2 E2 | %573
 D2 E2 z4 | B,2 z2 z4 | z2 B,2 B,2 z2 | A,2 z2 z4 | z2 A,2 A,2 z2 | G,2 z2 z4 | z8 | G2 z2 z4 | %581
 z2 F2 G2 A2 | B,2 z2 z2 ^G2 | A,2 z2 z2 A,2 | G,2 F2 E2 D2 | C2 z2 z4 | C2 z2 B,2 z2 | A,2 z2 z4 | %588
 z8 | z4 z2 A,2 | D6 D2 | A2 z2 A2 z2 | A2 z2 z2 F2 | A,2 z2 A,2 z2 | A,2 z2 z4 | G2 B2 z2 A2 | %596
 =C2 z2 z4 | z2 G2 B4 | E2 F2 G2 E2 | A2 z2 A2 z2 | D2 z2 z4 | ^E2 z2 F2 z2 | c2 z2 z4 | %603
 z2 B2 ^A2 z2 | B2 z2 z4 | z2 A2 ^G2 F2 | ^E2 z2 z4 | F2 z2 z4 | z8 | z4 B,2 z2 | E2 z2 z4 | %611
 z4 A,2 z2 | D2 z2 z4 | C2 z2 B,2 z2 | ^A,2 z2 z4 | z8 | z8 | z8 | z8 | z8 | z8 | z8 | z8 | z8 | %624
 B,2 z2 z4 | z8 | D2 z2 z4 | z8 | z8 | z8 | z8 | F2 z2 ^G2 z2 | ^A2 z2 z4 | z8 | z8 | F2 z2 F2 z2 | %636
 ^A2 z2 z2 A2 | B2 E2 F2 F2 | B,6 D2 | A2 z2 A2 z2 | A2 z2 z2 F2 | A,2 z2 A,2 z2 | A,2 z2 z4 | %643
 G2 B2 z2 A2 | =C2 z2 z4 | z2 G2 B4 | E2 F2 G2 E2 | A2 z2 A2 z2 | D2 z2 z4 | ^E2 z2 F2 z2 | %650
 c2 z2 z4 | z2 B2 ^A2 z2 | B2 z2 z4 | z2 A2 ^G2 F2 | ^E2 z2 z4 | F2 z2 z4 | z8 | z4 B,2 z2 | %658
 E2 z2 z4 | z4 A,2 z2 | D2 z2 z4 | C2 z2 B,2 z2 | ^A,2 z2 z4 | z8 | z8 | z8 | z8 | z8 | z8 | z8 | %670
 z8 | z8 | B,2 z2 z4 | z8 | D2 z2 z4 | z8 | z8 | z8 | z8 | F2 z2 ^G2 z2 | ^A2 z2 z4 | z8 | z8 | %683
 F2 z2 F2 z2 | ^A2 z2 z2 A2 | B2 E2 F2 F2 | B,6 z2 |[M:4/4] z8 | z8 | z8 | z8 | z8 | z8 | z8 | z8 | %695
 z8 | z8 | z8 | z8 | z8 | z8 | z8 | z8 | z8 | z8 | z8 | z8 | z8 | z8 | z8 | z8 | z8 | z8 | z8 | %714
 z8 | z8 | z8 | z8 | z8 | z8 | z8 | z8 | z8 | z8 | z8 | z8 | z8 | z4 z z z d | cAdA eAdA | %729
 A2 z2 z4 | EA,FA, GA,FA, | A, z z2 z4 | z8 | z8 | z8 | z8 | z8 | z8 | z8 | z8 | z8 | z8 | z8 | %743
 z8 | z8 | z8 | z8 | z8 | z8 | z8 | z8 | z8 | z8 | z8 | z8 | z8 | z8 | z8 | z8 | z8 | z8 | z8 | %762
 z8 | z8 | z8 | z8 | z8 | z8 | z8 | z8 | z8 | z8 | z8 | z8 | z8 | z4 z z z d | cAdA eAdA | %777
 A2 z2 z4 | EA,FA, GA,FA, | A, z z2 z4 | z8 | z8 | z8 | z8 | z8 | z8 | z8 | z8 | z8 | z8 | z8 | %791
 z8 | z8 | z8 | z8 | z8 | z8 | z8 | z8 | z8 | z8 | z8 | z8 | z8 | z8 | z8 | z8 | z8 | z8 | z8 | %810
 z8 | z8 | z8 | z8 | z8 | z8 | z8 | z8 | z8 | z8 | z8 | z8 | z8 | z4 z4 |] %824
V:3
 x/ | d>b z2 e3/2d/4c/4 z2 | B3/2 z/ z2 z4 | x8 | z2 B3/4 z/4 z A/ z/ z z2 | z4 B3/4 z/4 z z2 | %6
 x8 | z4 F3/4 z/4 z z2 | z8 | z4 c3/2 z/ z c3/4 z/4 | c3/2 z/ z2 z4 | z4 c z z2 | c3/2 z/ z2 z4 | %13
 d>b z2 e3/2d/4c/4 z2 | B3/2 z/ z2 z4 | x8 | z2 B3/4 z/4 z A/ z/ z z2 | z4 B3/4 z/4 z z2 | x8 | %19
 z4 F3/4 z/4 z z2 | z8 | z4 c3/2 z/ z c3/4 z/4 | c3/2 z/ z2 z4 | z4 c z z2 | x8 | x8 | x8 | %27
 B3/4 z/4 z z2 z4 | z4 e3/2 z/ z2 | x8 | =c3/4 z/4 z z2 E/ z/ z F/ z/ z | x8 | x8 | %33
 z4 F3/4 z/4 z z2 | z4 B3/4 z/4 z z2 | x8 | F3/2 z/ z2 d3 z | z8 | x8 | B3/4 z/4 z z2 z4 | %40
 z4 e3/2 z/ z2 | x8 | =c3/4 z/4 z z2 E/ z/ z F/ z/ z | x8 | x8 | z4 F3/4 z/4 z z2 | %46
 z4 B3/4 z/4 z z2 | x8 | F3/2 z/ z2 d3 z | x8 | x8 | x8 | x8 | x8 | x8 | x8 | x8 | x8 | x8 | x8 | %60
 x8 | x8 | x8 | x8 | x8 | x8 | x8 | x8 | x8 | x8 | x8 | x8 | x8 | x8 | x8 | x8 | x8 | x8 | x8 | %79
 x8 | x8 | x8 | x8 | x8 | x8 | x8 | x8 | x8 | x8 | x8 | x8 | x8 | x8 | x8 | x8 | x8 | x8 | x8 | %98
[M:3/4] x6 | x6 | x6 | x6 | x6 | x6 | x6 | x6 | x6 | x6 | x6 | x6 | x6 | x6 | x6 | x6 | x6 | x6 | %116
 x6 | x6 | x6 | x6 | x6 | x6 | x6 | x6 | x6 | x6 | x6 | x6 | x6 | x6 | x6 | x6 | x6 | x6 | x6 | %135
 x6 | x6 | x6 | x6 | x6 | x6 | x6 | x6 | x6 | x6 | x6 | x6 | x6 | x6 | x6 | x6 | x6 | x6 | x6 | %154
 x6 | x6 | x6 | x6 | x6 | x6 | x6 | x6 | x6 | x6 | x6 | x6 | x6 | x6 | x6 | x6 | x6 | x6 | x6 | %173
 x6 | x6 | x6 | x6 | x6 | x6 | x6 | x6 | x6 | x6 | x6 | x6 | x6 | x6 | x6 | x6 | x6 | x6 | x6 | %192
 x6 | x6 | x6 | x6 | x6 | x6 | x6 | x6 | x6 | x6 | x6 | x6 | x6 | x6 | x6 | x6 | x6 | x6 | x6 | %211
 x6 | x6 | x6 | x6 | x6 | x6 | x6 | x6 | x6 | x6 | x6 | x6 | x6 | x6 | x6 | x6 | x6 | x6 | x6 | %230
 x6 | x6 | x6 | x6 | x6 | x6 | x6 | x6 | x6 | x6 | x6 | x6 | x6 | x6 | x6 | x6 | x6 | x6 | x6 | %249
 x6 | x6 | x6 | x6 | x6 | x6 | x6 | x6 | x6 | x6 |[M:3/4] x6 | x6 | x6 | x6 | x6 | x6 | x6 | x6 | %267
 x6 | x6 | x6 | x6 | x6 | x6 | x6 | x6 | x6 | x6 | x6 | x6 | x6 | x6 | x6 | x6 | x6 | x6 | x6 | %286
 x6 | x6 | x6 | x6 | x6 | x6 | x6 | x6 | x6 | x6 | x6 | x6 | x6 | x6 | x6 | x6 | x6 | x6 | x6 | %305
 x6 | x6 | x6 | x6 | x6 | x6 | x6 | x6 | x6 | x6 | x6 | x6 | x6 | x6 | x6 | x6 | x6 | x6 | x6 | %324
 x6 | x6 | x6 | x6 | x6 | x6 | x6 | x6 | x6 | x6 | x6 | x6 | x6 | x6 | x6 | x6 | x6 | x6 | x6 | %343
 x6 | x6 | x6 | x6 | x6 | x6 | x6 | x6 | x6 | x6 | x6 | x6 | x6 | x6 | x6 | x6 | x6 | x6 | x6 | %362
 x6 | x6 | x6 | x6 | x6 | x6 | x6 | x6 | x6 | x6 | x6 | x6 | x6 | x6 | x6 | x6 | x6 | x6 | x6 | %381
 x6 | x6 | x6 | x6 | x6 | x6 | x6 | x6 | x6 | x6 | x6 | x6 | x6 | x6 | x6 | x6 | x6 | x6 | x6 | %400
 x6 | x6 | x6 | x6 | x6 | x6 | x6 | x6 | x6 | x6 | x6 | x6 | x6 | x6 | x6 | x6 | x6 | x6 | x6 | %419
 x6 |[M:3/4] x6 | d2 d2 c2 | d3 z z2 | x6 | x6 | F2 E2 z2 | G4 F2 | F2 z4 | c3 z z2 | d2 d2 c2 | %430
 d3 z z2 | x6 | x6 | F2 E2 z2 | G4 F2 | F2 z4 | c6 | c2 c2 c2 | x6 | B2 c2 e2 | c3 z z2 | x6 | %442
 z4 B2 | =c2 B2 A2 | x6 | c2 z2 G2 | z4 A2 | B2 c2 d2 | c3 d ec | E2 z4 | F4 c2 | B2 z4 | x6 | %453
 F2 ^A2 B2 | x6 | z4 B2 | ^A2 z4 | d2 c2 B2 | E2 z2 F2 | x6 | F6 | c2 c2 c2 | x6 | B2 c2 e2 | %464
 c3 z z2 | x6 | z4 B2 | =c2 B2 A2 | x6 | c2 z2 G2 | z4 A2 | B2 c2 d2 | c3 d ec | E2 z4 | F4 c2 | %475
 B2 z4 | x6 | F2 ^A2 B2 | x6 | z4 B2 | ^A2 z4 |[K:D] d2 c2 B2 | E2 z2 F2 | x6 | F6 | x6 | %486
[M:9/8] x9 | x9 | x9 | x9 | x9 | x9 | x9 | x9 | x9 | x9 | x9 | x9 | x9 | x9 | x9 | x9 | x9 | x9 | %504
 x9 | x9 | x9 | x9 | x9 | x9 | x9 | x9 | x9 | x9 | x9 | x9 | x9 | x9 | x9 | x9 | x9 | x9 | x9 | %523
 x9 | x9 | x9 | x9 | x9 | x9 | x9 | x9 | x9 | x9 | x9 | x9 | x9 | x9 | x9 | x9 | x9 | x9 | x9 | %542
 x9 | x9 | x9 | x9 | x9 | x9 | x9 | x9 |[M:4/4] x8 | d2 z2 d2 z2 | c2 z2 z2 ^A2 | B2 c2 F4 | %554
 F2 z2 z4 | x8 | G2 z2 z4 | x8 | F2 z2 z4 | x8 | x8 | x8 | A2 z2 z4 | G2 z2 z2 F2 | x8 | x8 | x8 | %567
 x8 | x8 | z4 z2 G2 | F6 z2 | d2 z2 d2 z2 | c2 z2 z2 ^A2 | B2 c2 F4 | F2 z2 z4 | x8 | G2 z2 z4 | %577
 x8 | F2 z2 z4 | x8 | x8 | x8 | A2 z2 z4 | G2 z2 z2 F2 | x8 | x8 | x8 | x8 | x8 | z4 z2 G2 | %590
 F6 d2 | c2 d2 e2 d2 | c2 z2 z2 d2 | E2 F2 G2 F2 | E2 ED E2 F2 | B2 z2 z4 | GF G2 G2 e^d | %597
 e2 e2 z4 | z6 B2 | x8 | A4 z4 | x8 | x8 | x8 | x8 | z6 d2 | x8 | c2 z2 z4 | x8 | z4 F2 z2 | %610
 B2 z2 z4 | z4 E2 z2 | A2 z2 z4 | x8 | x8 | x8 | x8 | x8 | x8 | x8 | x8 | x8 | x8 | x8 | F2 z2 z4 | %625
 x8 | B2 z2 z4 | x8 | x8 | x8 | x8 | x8 | x8 | x8 | x8 | d2 z2 d2 z2 | c2 z2 z2 e2 | d2 z2 z4 | %638
 F6 d2 | c2 d2 e2 d2 | c2 z2 z2 d2 | E2 F2 G2 F2 | E2 ED E2 F2 | B2 z2 z4 | GF G2 G2 e^d | %645
 e2 e2 z4 | z6 B2 | x8 | A4 z4 | x8 | x8 | x8 | x8 | z6 d2 | x8 | c2 z2 z4 | x8 | z4 F2 z2 | %658
 B2 z2 z4 | z4 E2 z2 | A2 z2 z4 | x8 | x8 | x8 | x8 | x8 | x8 | x8 | x8 | x8 | x8 | x8 | F2 z2 z4 | %673
 x8 | B2 z2 z4 | x8 | x8 | x8 | x8 | x8 | x8 | x8 | x8 | d2 z2 d2 z2 | c2 z2 z2 e2 | d2 z2 z4 | %686
 F6 x2 |[M:4/4] x8 | x8 | x8 | x8 | x8 | x8 | x8 | x8 | x8 | x8 | x8 | x8 | x8 | x8 | x8 | x8 | %703
 x8 | x8 | x8 | x8 | x8 | x8 | x8 | x8 | x8 | x8 | x8 | x8 | x8 | x8 | x8 | x8 | x8 | x8 | x8 | %722
 x8 | x8 | x8 | x8 | x8 | x8 | x8 | c z z2 z4 | x8 | E z z2 z4 | x8 | x8 | x8 | x8 | x8 | x8 | x8 | %739
 x8 | x8 | x8 | x8 | x8 | x8 | x8 | x8 | x8 | x8 | x8 | x8 | x8 | x8 | x8 | x8 | x8 | x8 | x8 | %758
 x8 | x8 | x8 | x8 | x8 | x8 | x8 | x8 | x8 | x8 | x8 | x8 | x8 | x8 | x8 | x8 | x8 | x8 | x8 | %777
 c z z2 z4 | x8 | E z z2 z4 | x8 | x8 | x8 | x8 | x8 | x8 | x8 | x8 | x8 | x8 | x8 | x8 | x8 | x8 | %794
 x8 | x8 | x8 | x8 | x8 | x8 | x8 | x8 | x8 | x8 | x8 | x8 | x8 | x8 | x8 | x8 | x8 | x8 | x8 | %813
 x8 | x8 | x8 | x8 | x8 | x8 | x8 | x8 | x8 | x8 | x4 z4 |] %824
V:4
 x/ | B,3/2 z/ z3/2 z/ ^A,3/2 z/ z2 | G,3/2 z/ z2 z4 | x8 | z4 C/ z/ z z2 | x8 | x8 | %7
 z4 ^A,3/4 z/4 z B, z | x8 | x8 | C3/2 z/ z2 z4 | x8 | x8 | B,3/2 z/ z3/2 z/ ^A,3/2 z/ z2 | %14
 G,3/2 z/ z2 z4 | x8 | z4 C/ z/ z z2 | x8 | x8 | z4 ^A,3/4 z/4 z B, z | x8 | x8 | C3/2 z/ z2 z4 | %23
 x8 | x8 | x8 | x8 | G,3/4 z/4 z z2 z4 | x8 | x8 | =C3/2 z/ z2 z4 | x8 | x8 | x8 | x8 | x8 | %36
 z4 B,3 z | z8 | x8 | G,3/4 z/4 z z2 z4 | x8 | x8 | =C3/2 z/ z2 z4 | x8 | x8 | x8 | x8 | x8 | %48
 z3/2 z/ z2 B,3 z | x8 | x8 | x8 | x8 | x8 | x8 | x8 | x8 | x8 | x8 | x8 | x8 | x8 | x8 | x8 | x8 | %65
 x8 | x8 | x8 | x8 | x8 | x8 | x8 | x8 | x8 | x8 | x8 | x8 | x8 | x8 | x8 | x8 | x8 | x8 | x8 | %84
 x8 | x8 | x8 | x8 | x8 | x8 | x8 | x8 | x8 | x8 | x8 | x8 | x8 | x8 |[M:3/4] x6 | x6 | x6 | x6 | %102
 x6 | x6 | x6 | x6 | x6 | x6 | x6 | x6 | x6 | x6 | x6 | x6 | x6 | x6 | x6 | x6 | x6 | x6 | x6 | %121
 x6 | x6 | x6 | x6 | x6 | x6 | x6 | x6 | x6 | x6 | x6 | x6 | x6 | x6 | x6 | x6 | x6 | x6 | x6 | %140
 x6 | x6 | x6 | x6 | x6 | x6 | x6 | x6 | x6 | x6 | x6 | x6 | x6 | x6 | x6 | x6 | x6 | x6 | x6 | %159
 x6 | x6 | x6 | x6 | x6 | x6 | x6 | x6 | x6 | x6 | x6 | x6 | x6 | x6 | x6 | x6 | x6 | x6 | x6 | %178
 x6 | x6 | x6 | x6 | x6 | x6 | x6 | x6 | x6 | x6 | x6 | x6 | x6 | x6 | x6 | x6 | x6 | x6 | x6 | %197
 x6 | x6 | x6 | x6 | x6 | x6 | x6 | x6 | x6 | x6 | x6 | x6 | x6 | x6 | x6 | x6 | x6 | x6 | x6 | %216
 x6 | x6 | x6 | x6 | x6 | x6 | x6 | x6 | x6 | x6 | x6 | x6 | x6 | x6 | x6 | x6 | x6 | x6 | x6 | %235
 x6 | x6 | x6 | x6 | x6 | x6 | x6 | x6 | x6 | x6 | x6 | x6 | x6 | x6 | x6 | x6 | x6 | x6 | x6 | %254
 x6 | x6 | x6 | x6 | x6 |[M:3/4] x6 | x6 | x6 | x6 | x6 | x6 | x6 | x6 | x6 | x6 | x6 | x6 | x6 | %272
 x6 | x6 | x6 | x6 | x6 | x6 | x6 | x6 | x6 | x6 | x6 | x6 | x6 | x6 | x6 | x6 | x6 | x6 | x6 | %291
 x6 | x6 | x6 | x6 | x6 | x6 | x6 | x6 | x6 | x6 | x6 | x6 | x6 | x6 | x6 | x6 | x6 | x6 | x6 | %310
 x6 | x6 | x6 | x6 | x6 | x6 | x6 | x6 | x6 | x6 | x6 | x6 | x6 | x6 | x6 | x6 | x6 | x6 | x6 | %329
 x6 | x6 | x6 | x6 | x6 | x6 | x6 | x6 | x6 | x6 | x6 | x6 | x6 | x6 | x6 | x6 | x6 | x6 | x6 | %348
 x6 | x6 | x6 | x6 | x6 | x6 | x6 | x6 | x6 | x6 | x6 | x6 | x6 | x6 | x6 | x6 | x6 | x6 | x6 | %367
 x6 | x6 | x6 | x6 | x6 | x6 | x6 | x6 | x6 | x6 | x6 | x6 | x6 | x6 | x6 | x6 | x6 | x6 | x6 | %386
 x6 | x6 | x6 | x6 | x6 | x6 | x6 | x6 | x6 | x6 | x6 | x6 | x6 | x6 | x6 | x6 | x6 | x6 | x6 | %405
 x6 | x6 | x6 | x6 | x6 | x6 | x6 | x6 | x6 | x6 | x6 | x6 | x6 | x6 | x6 |[M:3/4] x6 | B,2 z4 | %422
 x6 | x6 | x6 | x6 | x6 | x6 | x6 | B,2 z4 | x6 | x6 | x6 | x6 | x6 | x6 | x6 | x6 | x6 | %439
 D2 C2 B,2 | A,3 z z2 | x6 | x6 | A,2 B,2 B,2 | x6 | A,2 z4 | x6 | G,2 z4 | x6 | x6 | z4 A,2 | %451
 G,2 z4 | x6 | x6 | x6 | z4 C2 | x6 | x6 | x6 | x6 | x6 | x6 | x6 | D2 C2 B,2 | A,3 z z2 | x6 | %466
 x6 | A,2 B,2 B,2 | x6 | A,2 z4 | x6 | G,2 z4 | x6 | x6 | z4 A,2 | G,2 z4 | x6 | x6 | x6 | z4 C2 | %480
 x6 |[K:D] x6 | x6 | x6 | x6 | x6 |[M:9/8] x9 | x9 | x9 | x9 | x9 | x9 | x9 | x9 | x9 | x9 | x9 | %497
 x9 | x9 | x9 | x9 | x9 | x9 | x9 | x9 | x9 | x9 | x9 | x9 | x9 | x9 | x9 | x9 | x9 | x9 | x9 | %516
 x9 | x9 | x9 | x9 | x9 | x9 | x9 | x9 | x9 | x9 | x9 | x9 | x9 | x9 | x9 | x9 | x9 | x9 | x9 | %535
 x9 | x9 | x9 | x9 | x9 | x9 | x9 | x9 | x9 | x9 | x9 | x9 | x9 | x9 | x9 |[M:4/4] x8 | %551
 B,2 z2 B,2 z2 | x8 | x8 | x8 | x8 | x8 | x8 | x8 | x8 | x8 | x8 | x8 | x8 | x8 | x8 | x8 | x8 | %568
 x8 | x8 | x8 | B,2 z2 B,2 z2 | x8 | x8 | x8 | x8 | x8 | x8 | x8 | x8 | x8 | x8 | x8 | x8 | x8 | %585
 x8 | x8 | x8 | x8 | x8 | x8 | x8 | z6 A,2 | x8 | x8 | G,2 z2 z4 | x8 | x8 | x8 | x8 | x8 | x8 | %602
 x8 | x8 | x8 | x8 | x8 | x8 | x8 | x8 | x8 | x8 | x8 | x8 | x8 | x8 | x8 | x8 | x8 | x8 | x8 | %621
 x8 | x8 | x8 | x8 | x8 | x8 | x8 | x8 | x8 | x8 | x8 | x8 | x8 | x8 | B,2 z2 B,2 z2 | x8 | x8 | %638
 x8 | x8 | z6 A,2 | x8 | x8 | G,2 z2 z4 | x8 | x8 | x8 | x8 | x8 | x8 | x8 | x8 | x8 | x8 | x8 | %655
 x8 | x8 | x8 | x8 | x8 | x8 | x8 | x8 | x8 | x8 | x8 | x8 | x8 | x8 | x8 | x8 | x8 | x8 | x8 | %674
 x8 | x8 | x8 | x8 | x8 | x8 | x8 | x8 | x8 | B,2 z2 B,2 z2 | x8 | x8 | x6 z2 |[M:4/4] x8 | x8 | %689
 x8 | x8 | x8 | x8 | x8 | x8 | x8 | x8 | x8 | x8 | x8 | x8 | x8 | x8 | x8 | x8 | x8 | x8 | x8 | %708
 x8 | x8 | x8 | x8 | x8 | x8 | x8 | x8 | x8 | x8 | x8 | x8 | x8 | x8 | x8 | x8 | x8 | x8 | x8 | %727
 x8 | x8 | x8 | x8 | x8 | x8 | x8 | x8 | x8 | x8 | x8 | x8 | x8 | x8 | x8 | x8 | x8 | x8 | x8 | %746
 x8 | x8 | x8 | x8 | x8 | x8 | x8 | x8 | x8 | x8 | x8 | x8 | x8 | x8 | x8 | x8 | x8 | x8 | x8 | %765
 x8 | x8 | x8 | x8 | x8 | x8 | x8 | x8 | x8 | x8 | x8 | x8 | x8 | x8 | x8 | x8 | x8 | x8 | x8 | %784
 x8 | x8 | x8 | x8 | x8 | x8 | x8 | x8 | x8 | x8 | x8 | x8 | x8 | x8 | x8 | x8 | x8 | x8 | x8 | %803
 x8 | x8 | x8 | x8 | x8 | x8 | x8 | x8 | x8 | x8 | x8 | x8 | x8 | x8 | x8 | x8 | x8 | x8 | x8 | %822
 x8 | x4 z4 |] %824

